www/assets/icons/crib.svg

<svg xmlns="http://www.w3.org/2000/svg" width="24" height="24" viewBox="0 0 24 24" fill='currentColor'><path d="M18 8h-6V3H8C5.79 3 4 4.79 4 7v6c0 1.1.9 2 2 2h2v2.93c-.61-.35-1.16-.78-1.65-1.27l-1.42 1.42C6.74 19.88 9.24 21 12 21s5.26-1.12 7.07-2.93l-1.42-1.42c-.49.49-1.05.92-1.65 1.27V15h2c1.1 0 2-.9 2-2v-3c0-1.1-.9-2-2-2m-4 10.75c-.64.16-1.31.25-2 .25s-1.36-.09-2-.25V15h4z"/></svg>

<svg width="24" height="24" viewBox="0 0 24 24" xmlns="http://www.w3.org/2000/svg" fill='currentColor'><path d="M18 8H12V3H8C5.79 3 4 4.79 4 7V13C4 14.1 4.9 15 6 15H8V17.93C7.39 17.58 6.84 17.15 6.35 16.66L4.93 18.08C6.74 19.88 9.24 21 12 21C14.76 21 17.26 19.88 19.07 18.07L17.65 16.65C17.16 17.14 16.6 17.57 16 17.92V15H18C19.1 15 20 14.1 20 13V10C20 8.9 19.1 8 18 8ZM14 18.75C13.36 18.91 12.69 19 12 19C11.31 19 10.64 18.91 10 18.75V15H14V18.75Z"/></svg>
